X: 30871
T: Out On The Ocean
R: jig
M: 6/8
K: Gmajor
|:B3 BAG|BdB A2 B|GED G2 A|BdB AGE|
D2 B BAG|BdB A2 B|GED G2 A|1 B/A/GG GFE:|2 BGG GBd||
|:e3 edB|e2 e edB|dcd def|gfe dBA|
G2 A B2 d|efe dBA|GED G2 A|1 BGG GBd:|2 BGG GFE||

